;FLAVOR:Marlin
;TIME:1638
;Filament used: 1.18102m
;Layer height: 0.15
;MINX:265.316
;MINY:242.51
;MINZ:0.3
;MAXX:293.01
;MAXY:270.205
;MAXZ:30.9
;TARGET_MACHINE.NAME:Unknown
;Generated with Cura_SteamEngine 5.8.1
M140 S55
M105
M190 S55
M104 S200
M105
M109 S200
M82 ;absolute extrusion mode
G28 ;Home
;Prime the extruder
G92 E0
G1 F200 E3
G92 E0
G92 E0
G92 E0
G1 F1500 E-6.5
;LAYER_COUNT:205
;LAYER:0
M107 P2
G0 F3600 X269.155 Y246.781 Z0.3
;TYPE:SKIRT
G1 F1500 E0
G1 F1800 X270.121 Y245.864 E0.06645
G1 X271.132 Y245.069 E0.13062
G1 X272.209 Y244.375 E0.19454
G1 X273.326 Y243.794 E0.25735
G1 X274.602 Y243.275 E0.32608
G1 X275.831 Y242.91 E0.39004
G1 X277.091 Y242.658 E0.45415
G1 X278.414 Y242.522 E0.5205
G1 X279.695 Y242.51 E0.58441
G1 X280.971 Y242.618 E0.6483
G1 X282.22 Y242.841 E0.7116
G1 X283.504 Y243.197 E0.77807
G1 X284.722 Y243.663 E0.84313
G1 X285.862 Y244.224 E0.90652
G1 X286.978 Y244.911 E0.9719
G1 X288.021 Y245.697 E1.03706
G1 X288.932 Y246.528 E1.09858
G1 X289.814 Y247.485 E1.16351
G1 X290.62 Y248.56 E1.23054
G1 X291.288 Y249.643 E1.29402
G1 X291.887 Y250.862 E1.36178
G1 X292.315 Y251.98 E1.42151
G1 X292.682 Y253.305 E1.4901
G1 X292.912 Y254.608 E1.55611
G1 X293.01 Y255.789 E1.61524
G1 X292.997 Y257.191 E1.68519
G1 X292.86 Y258.466 E1.74916
G1 X292.639 Y259.595 E1.80656
G1 X292.229 Y260.973 E1.87829
G1 X291.767 Y262.117 E1.93984
G1 X291.138 Y263.328 E2.00792
G1 X290.403 Y264.46 E2.07525
G1 X289.696 Y265.357 E2.13224
G1 X288.702 Y266.406 E2.20433
G1 X287.806 Y267.186 E2.2636
G1 X286.662 Y268.006 E2.33382
G1 X285.583 Y268.633 E2.39608
G1 X284.453 Y269.16 E2.45829
G1 X283.137 Y269.625 E2.52792
G1 X281.941 Y269.926 E2.58945
G1 X280.648 Y270.127 E2.65473
G1 X279.313 Y270.205 E2.72145
G1 X277.984 Y270.156 E2.7878
G1 X276.72 Y269.988 E2.85142
G1 X275.604 Y269.744 E2.90841
G1 X274.201 Y269.288 E2.98201
G1 X273.114 Y268.813 E3.04119
G1 X271.853 Y268.118 E3.11303
G1 X270.902 Y267.47 E3.17044
G1 X269.804 Y266.563 E3.24149
G1 X268.937 Y265.694 E3.30273
G1 X268.116 Y264.706 E3.36682
G1 X267.325 Y263.539 E3.43716
G1 X266.708 Y262.407 E3.50148
G1 X266.234 Y261.317 E3.56078
G1 X265.801 Y259.986 E3.63061
G1 X265.52 Y258.723 E3.69516
G1 X265.359 Y257.446 E3.75937
G1 X265.316 Y256.218 E3.82067
G1 X265.399 Y254.848 E3.88915
G1 X265.597 Y253.572 E3.95357
G1 X265.915 Y252.323 E4.01787
G1 X266.354 Y251.092 E4.08308
G1 X266.905 Y249.913 E4.148
G1 X267.572 Y248.775 E4.21381
G1 X268.322 Y247.737 E4.2777
G1 X269.155 Y246.781 E4.34096
G0 F3600 X269.457 Y247.044
G1 F1800 X270.369 Y246.178 E4.40371
G1 X271.349 Y245.405 E4.46598
G1 X272.394 Y244.73 E4.52804
G1 X273.511 Y244.149 E4.59086
G1 X274.716 Y243.658 E4.65578
G1 X275.91 Y243.302 E4.71794
G1 X277.132 Y243.056 E4.78012
G1 X278.418 Y242.922 E4.84463
G1 X279.662 Y242.909 E4.9067
G1 X280.901 Y243.012 E4.96872
G1 X282.15 Y243.235 E5.03202
G1 X283.362 Y243.571 E5.09477
G1 X284.546 Y244.022 E5.15798
G1 X285.652 Y244.565 E5.21945
G1 X286.768 Y245.252 E5.28483
G1 X287.751 Y245.993 E5.34625
G1 X288.662 Y246.824 E5.40777
G1 X289.494 Y247.725 E5.46895
G1 X290.28 Y248.77 E5.53419
G1 X290.929 Y249.82 E5.59577
G1 X291.513 Y251.005 E5.66168
G1 X291.941 Y252.123 E5.7214
G1 X292.288 Y253.375 E5.78622
G1 X292.513 Y254.641 E5.85037
G1 X292.611 Y255.822 E5.9095
G1 X292.599 Y257.149 E5.9757
G1 X292.467 Y258.389 E6.03792
G1 X292.246 Y259.518 E6.09531
G1 X291.858 Y260.823 E6.16323
G1 X291.396 Y261.967 E6.22479
G1 X290.802 Y263.111 E6.2891
G1 X290.089 Y264.212 E6.35454
G1 X289.382 Y265.109 E6.41152
G1 X288.439 Y266.104 E6.47991
G1 X287.543 Y266.884 E6.53918
G1 X286.46 Y267.66 E6.60565
G1 X285.414 Y268.27 E6.66606
G1 X284.284 Y268.797 E6.72826
G1 X283.039 Y269.237 E6.79414
G1 X281.843 Y269.538 E6.85567
G1 X280.587 Y269.732 E6.91908
G1 X279.327 Y269.805 E6.98204
G1 X278.036 Y269.759 E7.04649
G1 X276.805 Y269.597 E7.10844
G1 X275.689 Y269.353 E7.16543
G1 X274.361 Y268.921 E7.2351
G1 X273.274 Y268.446 E7.29428
G1 X272.078 Y267.787 E7.36241
G1 X271.127 Y267.139 E7.41982
G1 X270.087 Y266.28 E7.48712
G1 X269.245 Y265.438 E7.54653
G1 X268.424 Y264.45 E7.61062
G1 X267.676 Y263.347 E7.67711
G1 X267.075 Y262.247 E7.73964
G1 X266.601 Y261.157 E7.79894
G1 X266.191 Y259.899 E7.86495
G1 X265.917 Y258.672 E7.92768
G1 X265.759 Y257.432 E7.99004
G1 X265.716 Y256.204 E8.05134
G1 X265.794 Y254.909 E8.11607
G1 X265.985 Y253.67 E8.17861
G1 X266.292 Y252.457 E8.24104
G1 X266.731 Y251.226 E8.30624
G1 X267.25 Y250.115 E8.36742
G1 X267.897 Y249.009 E8.43134
G1 X268.624 Y248 E8.49339
G1 X269.457 Y247.044 E8.55665
G0 F3600 X269.733 Y247.334
G1 F1800 X270.617 Y246.492 E8.61756
G1 X271.567 Y245.741 E8.67797
G1 X272.579 Y245.085 E8.73814
G1 X273.696 Y244.504 E8.80096
G1 X274.831 Y244.041 E8.86211
G1 X275.989 Y243.694 E8.92242
G1 X277.174 Y243.454 E8.98274
G1 X278.423 Y243.322 E9.0454
G1 X279.629 Y243.308 E9.10558
G1 X280.831 Y243.406 E9.16574
G1 X282.044 Y243.621 E9.2272
G1 X283.22 Y243.945 E9.28806
G1 X284.37 Y244.381 E9.34942
G1 X285.443 Y244.906 E9.40901
G1 X286.528 Y245.572 E9.47253
G1 X287.482 Y246.289 E9.53207
G1 X288.369 Y247.096 E9.5919
G1 X289.175 Y247.966 E9.65106
G1 X289.94 Y248.981 E9.71447
G1 X290.57 Y249.997 E9.77412
G1 X291.139 Y251.148 E9.83817
G1 X291.567 Y252.266 E9.8979
G1 X291.894 Y253.446 E9.95899
G1 X292.114 Y254.674 E10.02123
G1 X292.212 Y255.855 E10.08035
G1 X292.201 Y257.107 E10.14282
G1 X292.074 Y258.312 E10.20327
G1 X291.853 Y259.441 E10.26066
G1 X291.487 Y260.673 E10.32478
G1 X291.025 Y261.817 E10.38633
G1 X290.466 Y262.894 E10.44687
G1 X289.775 Y263.964 E10.51042
G1 X289.068 Y264.861 E10.5674
G1 X288.176 Y265.802 E10.63209
G1 X287.28 Y266.582 E10.69135
G1 X286.258 Y267.315 E10.7541
G1 X285.245 Y267.907 E10.81264
G1 X284.115 Y268.434 E10.87484
G1 X282.941 Y268.849 E10.93697
G1 X281.745 Y269.15 E10.99849
G1 X280.563 Y269.333 E11.05817
G1 X279.341 Y269.405 E11.11924
G1 X278.088 Y269.362 E11.18179
G1 X276.89 Y269.206 E11.24206
G1 X275.774 Y268.962 E11.29905
G1 X274.521 Y268.554 E11.3648
G1 X273.434 Y268.079 E11.42398
G1 X272.303 Y267.456 E11.4884
G1 X271.352 Y266.808 E11.54581
G1 X270.37 Y265.997 E11.60935
G1 X269.528 Y265.155 E11.66876
G1 X268.732 Y264.195 E11.73098
G1 X268.027 Y263.155 E11.79366
G1 X267.442 Y262.087 E11.85441
G1 X266.968 Y260.997 E11.91371
G1 X266.581 Y259.811 E11.97595
G1 X266.314 Y258.621 E12.0368
G1 X266.159 Y257.418 E12.09731
G1 X266.116 Y256.19 E12.15862
G1 X266.189 Y254.97 E12.21959
G1 X266.373 Y253.768 E12.28026
G1 X266.669 Y252.591 E12.34081
G1 X267.094 Y251.395 E12.40413
G1 X267.596 Y250.316 E12.4635
G1 X268.222 Y249.242 E12.52552
G1 X268.926 Y248.262 E12.58572
G1 X269.733 Y247.334 E12.64708
G1 F1500 E6.14708
;MESH:Airbender_Ring.STL(1)
G0 F3600 X274.97 Y247.141
G0 X277.693 Y247.672
;TYPE:WALL-INNER
G1 F1500 E12.64708
G1 F1585.9 X278.069 Y247.577 E12.66904
G0 F3600 X279.684 Y247.496
G0 X281.512 Y247.812
G1 F1813.6 X281.633 Y247.857 E12.67543
G0 F3600 X282.703 Y248.874
G0 X283.543 Y250.07
G0 X283.983 Y251.463
G0 X283.936 Y253.377
G0 X282.246 Y253.015
G0 X281.586 Y250.134
G0 X280.3 Y249.645
G0 X279.158 Y249.509
G0 X277.85 Y250.173
G0 X277.35 Y251.023
G0 X277.418 Y252.19
G0 X278.184 Y253.083
G0 X279.069 Y253.242
G0 X279.874 Y252.779
G0 X280.1 Y251.917
G0 X279.7 Y251.116
G1 F1666.7 X280.037 Y251.347 E12.69744
G1 F1487.6 X280.22 Y251.611 E12.71684
G1 F1414.5 X280.318 Y251.918 E12.73729
G1 F1403.5 X280.321 Y252.324 E12.76327
G1 F1368.8 X280.168 Y252.717 E12.79094
G1 F1343.3 X280.015 Y252.946 E12.80935
G1 F1348.3 X279.713 Y253.213 E12.8362
G1 F1355.9 X279.318 Y253.389 E12.86484
G1 F1414.5 X278.746 Y253.446 E12.90133
G1 F1472.4 X278.501 Y253.413 E12.91641
G1 F1460.4 X277.983 Y253.193 E12.95102
G1 F1417.3 X277.546 Y252.812 E12.98775
G1 F1403.5 X277.25 Y252.327 E13.02411
G1 F1431.4 X277.119 Y251.802 E13.05805
G1 F1490.7 X277.112 Y251.395 E13.08258
G1 F1572.1 X277.168 Y251.026 E13.1039
G1 F1610.7 X277.31 Y250.658 E13.12589
G1 F1625.3 X277.51 Y250.305 E13.14831
G1 F1655.2 X277.761 Y250.011 E13.16928
G1 F1674.4 X278.405 Y249.559 E13.21148
G1 F1739.1 X279.165 Y249.347 E13.25222
G1 F1813.6 X279.62 Y249.337 E13.27475
G1 F1795.5 X280.415 Y249.521 E13.31557
G1 F1706.2 X281.148 Y249.959 E13.36051
G1 F1666.7 X281.45 Y250.249 E13.38307
G1 F1678.3 X281.706 Y250.585 E13.40567
G1 F1690.1 X281.907 Y250.951 E13.42786
G1 F1718.4 X282.056 Y251.364 E13.4508
G1 F1769 X282.135 Y251.753 E13.47095
G1 F1832.1 X282.162 Y252.162 E13.49104
G1 F1884.8 X282.122 Y252.62 E13.51295
G0 F3600 X282.174 Y253.456
G0 X283.936 Y253.377
G0 X284.04 Y252.194
G0 X283.818 Y250.749
G0 X283.169 Y249.441
G0 X282.158 Y248.385
G0 X280.99 Y247.749
G0 X279.684 Y247.496
G0 X278.365 Y247.65
G0 X277.15 Y248.199
G0 X276.152 Y249.125
G0 X275.544 Y250.232
G0 X274.925 Y254.82
G0 X274.179 Y255.36
G0 X273.636 Y256.103
G0 X273.333 Y257.28
G0 X273.795 Y258.709
G0 X275.011 Y259.597
G0 X276.005 Y259.654
G0 X277.113 Y259.013
G0 X277.587 Y257.825
G0 X276.966 Y256.394
G1 F1879.9 X277.276 Y256.592 E13.53052
G1 F1951.2 X277.605 Y257.01 E13.555
G1 F1714.3 X277.767 Y257.556 E13.58484
G1 F1528.7 X277.784 Y257.834 E13.6012
G1 F1463.4 X277.668 Y258.445 E13.63936
G1 F1437.1 X277.331 Y259.063 E13.68335
G1 F1420.1 X277.101 Y259.307 E13.70455
G1 F1422.9 X276.707 Y259.609 E13.73588
G1 F1406.2 X276.204 Y259.818 E13.77067
G1 F1371.4 X275.869 Y259.89 E13.7931
G1 F1361.1 X275.525 Y259.904 E13.81582
G1 F1330.9 X275.186 Y259.86 E13.83889
G1 F1323.5 X274.801 Y259.749 E13.86607
G1 F1321.1 X274.428 Y259.564 E13.89437
G1 F1316.3 X274.085 Y259.332 E13.92263
G1 F1309.1 X273.781 Y259.036 E13.95173
G1 F1302 X273.532 Y258.719 E13.97954
G1 F1295 X273.336 Y258.343 E14.00894
G1 F1288 X273.196 Y257.959 E14.03744
G1 F1278.9 X273.126 Y257.553 E14.06637
G1 X273.111 Y257.144 E14.09511
G1 F1288 X273.213 Y256.514 E14.1396
G1 F1232.9 X273.445 Y255.911 E14.18666
G1 F1178.4 X273.649 Y255.572 E14.21682
G1 F1168.8 X273.915 Y255.253 E14.24873
G1 F1176.5 X274.217 Y254.977 E14.27996
G1 F1200 X274.598 Y254.719 E14.31439
G0 F3600 X275.29 Y254.206
G0 X273.878 Y255.71
G0 X273.452 Y256.547
G0 X273.451 Y258.031
G0 X274.332 Y259.249
G0 X275.641 Y259.691
G0 X276.604 Y259.432
G0 X277.454 Y258.449
G0 X277.573 Y257.469
G0 X277.003 Y256.575
G0 X275.449 Y256.809
G0 X275.641 Y256.906
G1 F1682.2 X275.791 Y256.708 E14.32765
G1 F1841.4 X276.014 Y256.539 E14.3413
G1 F1945.9 X276.312 Y256.396 E14.35655
G1 F1920 X276.697 Y256.35 E14.37469
G1 F1827.4 X276.966 Y256.394 E14.38808
G1 X276.713 Y256.257 E14.40222
G1 F1920 X276.273 Y256.157 E14.42332
G1 F1945.9 X275.856 Y256.209 E14.44272
G1 F1841.4 X275.524 Y256.394 E14.46125
G1 F1682.2 X275.261 Y256.677 E14.48188
G1 F1592.9 X275.093 Y257.022 E14.50351
G1 F1561.8 X275.043 Y257.317 E14.52071
G1 F1558.4 X275.074 Y257.539 E14.53363
G1 X275.163 Y257.719 E14.5452
G1 X275.388 Y257.924 E14.56274
G1 X275.668 Y257.991 E14.57933
G1 X275.561 Y257.775 E14.59322
G1 X275.501 Y257.466 E14.61136
G1 F1565.2 X275.537 Y257.144 E14.62995
G1 F1592.9 X275.641 Y256.906 E14.64459
G0 F3600 X275.449 Y256.809
G0 X276.385 Y256.522
G0 X277.264 Y256.754
G0 X277.988 Y257.847
G0 X276.267 Y260.036
G0 X273.61 Y259.205
G0 X273.039 Y256.217
G0 X274.802 Y254.271
G0 X274.015 Y252.964
G0 X273.088 Y253.626
G0 X272.156 Y254.685
G0 X271.572 Y255.96
G0 X271.358 Y257.348
G0 X271.598 Y258.743
G0 X272.27 Y259.987
G0 X273.304 Y260.953
G0 X274.594 Y261.537
G0 X282.374 Y261.57
G0 X283.344 Y261.357
G0 X284.465 Y260.543
G0 X284.863 Y259.845
G0 X285.011 Y259.055
G0 X284.899 Y258.262
G0 X284.525 Y257.534
G0 X283.453 Y256.773
G0 X282.21 Y256.857
G0 X281.296 Y257.678
G0 X281.059 Y258.475
G0 X281.524 Y259.186
G0 X282.335 Y259.333
G1 F2063 X282.06 Y259.405 E14.65696
G1 X281.665 Y259.367 E14.67424
G1 X282.05 Y259.578 E14.69335
G1 X282.408 Y259.625 E14.70906
G1 X282.668 Y259.55 E14.72084
G1 F2022.5 X282.865 Y259.406 E14.73168
G1 F2000 X283.033 Y259.199 E14.74365
G1 F2016.8 X283.103 Y258.931 E14.75598
G1 X283.032 Y258.731 E14.76543
G1 X282.913 Y258.631 E14.77235
G1 X282.817 Y258.901 E14.78511
G1 F2011.2 X282.575 Y259.181 E14.80164
G1 F2033.9 X282.335 Y259.333 E14.81418
G0 F3600 X281.524 Y259.186
G0 X281.059 Y258.475
G0 X281.296 Y257.678
G0 X282.21 Y256.857
G0 X283.453 Y256.773
G0 X284.525 Y257.534
G0 X284.899 Y258.262
G0 X285.011 Y259.055
G0 X284.863 Y259.845
G0 X284.465 Y260.543
G0 X283.788 Y261.13
G0 X282.869 Y261.505
G0 X281.481 Y263.355
G0 X282.032 Y263.501
G1 F1800 X281.905 Y263.283 E14.82677
G1 X281.865 Y263.055 E14.83832
G1 X282.138 Y262.037 E14.8909
G1 X282.364 Y261.726 E14.91008
G1 X281.808 Y261.701 E14.93785
G1 X281.297 Y261.588 E14.96396
G1 X280.857 Y261.414 E14.98756
G1 X280.419 Y261.151 E15.01305
G1 X280.001 Y260.795 E15.04044
G1 X279.625 Y260.316 E15.07082
G1 X279.371 Y259.86 E15.09687
G1 X279.264 Y259.584 E15.11163
G1 X278.855 Y260.226 E15.14961
G1 X278.407 Y260.728 E15.18318
G1 X277.869 Y261.151 E15.21732
G1 X277.259 Y261.486 E15.25204
G1 X276.605 Y261.713 E15.28658
G1 X275.919 Y261.82 E15.32122
G1 X275.236 Y261.817 E15.35529
G1 X274.556 Y261.69 E15.38981
G1 X273.859 Y261.446 E15.42665
G1 X273.255 Y261.109 E15.46116
G1 X272.635 Y260.63 E15.50024
G1 X272.143 Y260.087 E15.5368
G1 X271.736 Y259.463 E15.57397
G1 X271.442 Y258.795 E15.61038
G1 X271.269 Y258.109 E15.64568
G1 X271.193 Y257.347 E15.68388
G1 X271.249 Y256.609 E15.72081
G1 X271.429 Y255.878 E15.75836
G1 X271.688 Y255.201 E15.79453
G1 X272.045 Y254.557 E15.83126
G1 X272.433 Y254.045 E15.86331
G1 X272.989 Y253.498 E15.90223
G1 X273.534 Y253.099 E15.93592
G1 X273.822 Y252.987 E15.95134
G1 X274.087 Y253.017 E15.96465
G1 X274.358 Y253.208 E15.98119
G1 X274.777 Y253.895 E16.02133
G1 X274.818 Y254.194 E16.03639
G1 F1610.7 X274.711 Y254.557 E16.05749
G1 F1326 X274.598 Y254.719 E16.07087
G1 F1451.6 X275.341 Y254.48 E16.11915
G1 F1800 X275.824 Y254.374 E16.14382
G1 X276.422 Y254.353 E16.17367
G1 X276.206 Y254.151 E16.18843
G1 X275.843 Y253.704 E16.21716
G1 X275.524 Y253.13 E16.24992
G1 X275.318 Y252.599 E16.27833
G1 X275.192 Y251.953 E16.31117
G1 X275.162 Y251.379 E16.33985
G1 X275.228 Y250.773 E16.37026
G1 X275.41 Y250.137 E16.40326
G1 X275.644 Y249.611 E16.43198
G1 X276.021 Y249.027 E16.46666
G1 X276.497 Y248.498 E16.50217
G1 X277.024 Y248.089 E16.53545
G1 F1614.3 X277.693 Y247.672 E16.5793
G1 X277.122 Y247.732 E16.61124
G1 F1800 X276.303 Y247.969 E16.65378
G1 X275.535 Y248.27 E16.69493
G1 X274.803 Y248.636 E16.73576
G1 X274.096 Y249.081 E16.77744
G1 X273.444 Y249.583 E16.81849
G1 X272.829 Y250.154 E16.86036
G1 X272.275 Y250.772 E16.90176
G1 X271.788 Y251.434 E16.94277
G1 X271.357 Y252.147 E16.98433
G1 X270.994 Y252.903 E17.02617
G1 X270.705 Y253.684 E17.06772
G1 X270.487 Y254.484 E17.10909
G1 X270.353 Y255.297 E17.15019
G1 X270.289 Y256.138 E17.19227
G1 X270.304 Y256.96 E17.23329
G1 X270.397 Y257.795 E17.2752
G1 X270.569 Y258.604 E17.31647
G1 X270.823 Y259.416 E17.35891
G1 X271.136 Y260.171 E17.39969
G1 X271.529 Y260.905 E17.44123
G1 X271.991 Y261.61 E17.48328
G1 X272.514 Y262.261 E17.52494
G1 X273.092 Y262.853 E17.56622
G1 X273.724 Y263.397 E17.60782
G1 X274.417 Y263.879 E17.64994
G1 X275.137 Y264.288 E17.69125
G1 X275.898 Y264.633 E17.73293
G1 X276.695 Y264.906 E17.77497
G1 X277.501 Y265.097 E17.81629
G1 X278.337 Y265.217 E17.85843
G1 X279.168 Y265.255 E17.89993
G1 X279.999 Y265.217 E17.94143
G1 X280.835 Y265.097 E17.98357
G1 X281.637 Y264.907 E18.02469
G1 X282.439 Y264.633 E18.06697
G1 X283.199 Y264.288 E18.10861
G1 X283.919 Y263.881 E18.14987
G1 F1875 X284.47 Y263.512 E18.18163
G1 F1414.5 X284.705 Y263.151 E18.20898
G1 X284.287 Y263.196 E18.23567
G1 F1894.7 X284.019 Y263.338 E18.25004
G1 F1818.2 X283.223 Y263.585 E18.29121
G1 F1800 X282.571 Y263.689 E18.32415
G1 X282.355 Y263.684 E18.33493
G1 X282.032 Y263.501 E18.35345
G0 F3600 X281.481 Y263.355
G0 X283.127 Y263.842
G0 X283.961 Y263.59
G0 X284.705 Y263.151
G1 F1214.2 X285.302 Y262.699 E18.40883
G1 F1434.3 X285.838 Y262.187 E18.45524
G1 F1572.1 X286.358 Y261.544 E18.50248
G1 F1519 X286.764 Y260.88 E18.54849
G1 F1306.7 X287.06 Y260.213 E18.59864
G0 F3600 X286.953 Y258.605
G0 X286.564 Y257.162
G0 X283.766 Y253.824
G0 X283.865 Y253.367
G1 F1800 X283.571 Y253.468 E18.61415
G1 X282.582 Y253.264 E18.66453
G1 X282.398 Y253.19 E18.67443
G1 X282.198 Y252.992 E18.68847
